X: 9733
T: Deirdre Hurley's
R: jig
M: 6/8
K: Edorian
B2e edB|AB/c/d B2A|G3 GFE|FBA FED|
B2e edB|AB/c/d B2A|G3 GFE|FBD E2A:|
|:B2e ede|f2a afa|bag agf|g2e fed|
B2e ede|f2a afa|bag agf|efd ed=c:|
|:B3 BAG|A3 B2A|G3 GFE|FBA FED|
B3 BAG|A3 B2A|G3 GFE|FBD E2A:|

